apps/trade/public/tokens/ftm.svg

<svg width="24" height="24" fill="none" xmlns="http://www.w3.org/2000/svg">
    <g clip-path="url(#a)">
        <path d="M12 24c6.627 0 12-5.373 12-12S18.627 0 12 0 0 5.373 0 12s5.373 12 12 12Z" fill="#13B5EC"/>
        <path fill-rule="evenodd" clip-rule="evenodd" d="M12.9 9.675 15.6 8.1v3.15l-2.7-1.575Zm2.7 6.75-3.6 2.1-3.6-2.1V12.75l3.6 2.1 3.6-2.1v3.675ZM8.4 8.1l2.7 1.575-2.7 1.575V8.1Zm4.05 2.325L15.15 12l-2.7 1.575v-3.15Zm-.9 3.15L8.85 12l2.7-1.575v3.15Zm3.6-6.225L12 9.15l-3.15-1.8L12 5.475l3.15 1.875Zm-7.65-.3v9.825l4.5 2.55 4.5-2.55V7.05L12 4.5 7.5 7.05Z" fill="#fff"/>
    </g>
    <defs>
        <clipPath id="a">
            <path fill="#fff" d="M0 0h24v24H0z"/>
        </clipPath>
    </defs>
</svg>

<svg width="24" height="24" viewBox="0 0 24 24" fill="none" xmlns="http://www.w3.org/2000/svg">
    <g clip-path="url(#ftm_clip0_10065_64220)">
        <path
            d="M12 24C18.6274 24 24 18.6274 24 12C24 5.37258 18.6274 0 12 0C5.37258 0 0 5.37258 0 12C0 18.6274 5.37258 24 12 24Z"
            fill="#13B5EC" />
        <path fill-rule="evenodd" clip-rule="evenodd"
            d="M12.9 9.675L15.6 8.1V11.25L12.9 9.675ZM15.6 16.425L12 18.525L8.4 16.425V12.75L12 14.85L15.6 12.75V16.425ZM8.4 8.1L11.1 9.675L8.4 11.25V8.1ZM12.45 10.425L15.15 12L12.45 13.575V10.425ZM11.55 13.575L8.85 12L11.55 10.425V13.575ZM15.15 7.35L12 9.15L8.85 7.35L12 5.475L15.15 7.35ZM7.5 7.05V16.875L12 19.425L16.5 16.875V7.05L12 4.5L7.5 7.05Z"
            fill="white" />
    </g>
    <defs>
        <clipPath id="ftm_clip0_10065_64220">
            <rect width="24" height="24" fill="white" />
        </clipPath>
    </defs>
</svg>
